flaticon/emoticons/laughing.svg

<svg xmlns="http://www.w3.org/2000/svg" width="32" height="32" viewBox="0 0 24 24">
    <path d="M 22.476562 9.785156 C 22.449219 9.652344 22.410156 9.523438 22.378906 9.390625 C 22.347656 9.257812 22.320312 9.125 22.28125 8.996094 C 22.226562 8.792969 22.160156 8.597656 22.09375 8.398438 C 22.058594 8.304688 22.03125 8.210938 21.996094 8.117188 C 21.910156 7.886719 21.8125 7.664062 21.710938 7.441406 C 21.6875 7.382812 21.664062 7.328125 21.640625 7.273438 C 21.527344 7.039062 21.40625 6.8125 21.277344 6.585938 C 21.253906 6.542969 21.230469 6.496094 21.203125 6.449219 C 21.089844 6.261719 20.96875 6.078125 20.847656 5.898438 C 20.792969 5.816406 20.738281 5.730469 20.683594 5.648438 C 20.617188 5.558594 20.546875 5.472656 20.480469 5.386719 C 18.496094 2.785156 15.382812 1.144531 11.921875 1.144531 C 7.855469 1.144531 4.269531 3.488281 2.488281 7.011719 C 2.460938 7.070312 2.429688 7.125 2.398438 7.183594 C 2.316406 7.351562 2.246094 7.527344 2.171875 7.699219 C 2.121094 7.824219 2.066406 7.945312 2.019531 8.070312 C 1.964844 8.214844 1.917969 8.363281 1.871094 8.511719 C 1.820312 8.667969 1.765625 8.820312 1.722656 8.976562 C 1.679688 9.121094 1.648438 9.269531 1.613281 9.417969 C 1.585938 9.539062 1.550781 9.660156 1.523438 9.785156 C 0.640625 10.265625 0 11.304688 0 12.324219 C 0 13.378906 0.621094 14.328125 1.570312 14.761719 C 2.792969 19.539062 7.046875 22.855469 12 22.855469 C 16.953125 22.855469 21.207031 19.539062 22.429688 14.761719 C 23.378906 14.328125 24 13.378906 24 12.324219 C 24 11.304688 23.359375 10.265625 22.476562 9.785156 Z M 2.589844 9.542969 C 2.621094 9.410156 2.65625 9.277344 2.695312 9.148438 C 2.738281 9 2.785156 8.851562 2.835938 8.703125 C 2.875 8.59375 2.914062 8.480469 2.957031 8.371094 C 3.023438 8.199219 3.09375 8.03125 3.167969 7.863281 C 3.199219 7.796875 3.230469 7.726562 3.261719 7.65625 C 4.832031 4.398438 8.132812 2.285156 12 2.285156 C 15.265625 2.285156 18.125 3.792969 19.882812 6.222656 C 19.941406 6.304688 19.996094 6.390625 20.054688 6.472656 C 20.140625 6.597656 20.222656 6.726562 20.300781 6.859375 C 20.378906 6.988281 20.453125 7.121094 20.523438 7.253906 C 20.578125 7.355469 20.636719 7.457031 20.6875 7.5625 C 20.761719 7.710938 20.828125 7.863281 20.894531 8.015625 C 20.941406 8.121094 20.984375 8.226562 21.027344 8.332031 C 21.085938 8.480469 21.136719 8.632812 21.191406 8.785156 C 21.230469 8.90625 21.269531 9.03125 21.304688 9.152344 C 21.347656 9.296875 21.386719 9.441406 21.421875 9.585938 C 21.4375 9.660156 21.453125 9.738281 21.472656 9.8125 C 19.472656 10.460938 17.980469 9.023438 17.058594 7.65625 C 16.894531 7.40625 16.628906 7.238281 16.335938 7.195312 C 16.035156 7.148438 15.726562 7.230469 15.488281 7.425781 C 10.925781 11.066406 4.332031 10.097656 2.542969 9.746094 C 2.558594 9.679688 2.574219 9.609375 2.589844 9.542969 Z M 21.855469 13.9375 C 21.695312 13.992188 21.574219 14.125 21.535156 14.292969 C 20.503906 18.757812 16.582031 21.875 12 21.875 C 7.417969 21.875 3.496094 18.757812 2.464844 14.292969 C 2.425781 14.128906 2.304688 13.992188 2.144531 13.9375 C 1.449219 13.703125 0.980469 13.050781 0.980469 12.324219 C 0.980469 11.660156 1.4375 10.9375 2.019531 10.636719 C 2.582031 10.769531 4.359375 11.128906 6.625 11.128906 C 9.492188 11.128906 13.140625 10.550781 16.097656 8.1875 C 16.132812 8.160156 16.167969 8.160156 16.1875 8.164062 C 16.222656 8.167969 16.242188 8.191406 16.246094 8.199219 C 17.863281 10.609375 19.90625 11.46875 22.015625 10.65625 C 22.582031 10.964844 23.019531 11.675781 23.019531 12.324219 C 23.019531 13.050781 22.550781 13.703125 21.855469 13.9375 Z M 21.855469 13.9375"/>
    <path d="M16.164062 16.488281L8.332031 16.488281C8.0625 16.488281 7.84375 16.714844 7.84375 16.988281 7.84375 18.390625 8.625 19.714844 9.789062 20.285156 10.621094 20.691406 11.449219 20.898438 12.246094 20.898438 13.039062 20.898438 13.867188 20.691406 14.703125 20.285156 15.875 19.714844 16.65625 18.386719 16.652344 16.976562 16.652344 16.707031 16.433594 16.488281 16.164062 16.488281zM10.21875 19.402344C10.191406 19.390625 10.164062 19.371094 10.140625 19.359375 10.382812 19.164062 11.050781 18.9375 12.25 18.9375 13.441406 18.9375 14.109375 19.164062 14.355469 19.355469 14.328125 19.371094 14.304688 19.390625 14.277344 19.402344 12.871094 20.085938 11.617188 20.085938 10.21875 19.402344zM15.09375 18.707031C14.609375 18.226562 13.636719 17.957031 12.25 17.957031 10.859375 17.957031 9.886719 18.226562 9.402344 18.710938 9.136719 18.355469 8.941406 17.925781 8.863281 17.46875L15.632812 17.46875C15.550781 17.925781 15.359375 18.355469 15.09375 18.707031zM8.023438 15.019531C8.023438 14.003906 8.847656 13.175781 9.863281 13.175781 10.0625 13.175781 10.238281 13.058594 10.316406 12.875 10.390625 12.691406 10.347656 12.480469 10.210938 12.339844 9.113281 11.246094 7.117188 11.246094 6.019531 12.339844 5.828125 12.53125 5.828125 12.84375 6.019531 13.035156 6.210938 13.226562 6.523438 13.226562 6.714844 13.035156 7.171875 12.578125 7.882812 12.410156 8.53125 12.53125 7.644531 13.007812 7.042969 13.945312 7.042969 15.019531 7.042969 15.289062 7.261719 15.507812 7.53125 15.507812 7.800781 15.507812 8.023438 15.289062 8.023438 15.019531zM14.347656 12.339844C14.207031 12.480469 14.164062 12.691406 14.242188 12.875 14.316406 13.058594 14.496094 13.175781 14.695312 13.175781 15.710938 13.175781 16.535156 14.003906 16.535156 15.019531 16.535156 15.289062 16.753906 15.507812 17.023438 15.507812 17.296875 15.507812 17.515625 15.289062 17.515625 15.019531 17.515625 13.945312 16.910156 13.007812 16.027344 12.53125 16.671875 12.410156 17.386719 12.578125 17.84375 13.035156 18.035156 13.226562 18.34375 13.226562 18.535156 13.035156 18.726562 12.84375 18.726562 12.53125 18.535156 12.339844 17.441406 11.246094 15.445312 11.246094 14.347656 12.339844zM14.347656 12.339844"/>
</svg>

<svg xmlns="http://www.w3.org/2000/svg" width="32" height="32" viewBox="0 0 24 24">
    <path d="M22.477 9.785c-.028-.133-.067-.262-.098-.394-.031-.133-.059-.266-.098-.395-.054-.203-.12-.398-.187-.598-.035-.093-.063-.187-.098-.28a10.29 10.29 0 0 0-.285-.677c-.023-.058-.047-.113-.07-.168-.114-.234-.235-.46-.364-.687-.023-.043-.047-.09-.074-.137a13.263 13.263 0 0 0-.355-.55l-.164-.25c-.067-.09-.137-.176-.204-.262a10.742 10.742 0 0 0-8.558-4.242c-4.067 0-7.652 2.343-9.434 5.867-.027.058-.058.113-.09.172-.082.168-.152.343-.226.515-.05.125-.106.246-.152.371a8.36 8.36 0 0 0-.149.442c-.05.156-.105.308-.148.465-.043.144-.075.293-.11.441-.027.121-.062.242-.09.367-.882.48-1.523 1.52-1.523 2.54 0 1.054.621 2.003 1.57 2.437A10.721 10.721 0 0 0 12 22.855c4.953 0 9.207-3.316 10.43-8.093A2.683 2.683 0 0 0 24 12.324c0-1.02-.64-2.058-1.523-2.539zM2.59 9.543a9.758 9.758 0 0 1 .246-.84c.039-.11.078-.223.121-.332.066-.172.137-.34.211-.508l.094-.207c1.57-3.258 4.87-5.37 8.738-5.37 3.266 0 6.125 1.507 7.883 3.937.058.082.113.168.172.25a7.844 7.844 0 0 1 .469.781c.054.101.113.203.164.309.074.148.14.3.207.453.046.105.09.21.132.316.059.148.11.3.164.453a13.188 13.188 0 0 1 .23.8c.017.075.032.153.052.227-2 .649-3.493-.789-4.414-2.156a1.075 1.075 0 0 0-1.57-.23c-4.563 3.64-11.157 2.672-12.946 2.32l.047-.203zm19.265 4.395a.491.491 0 0 0-.32.355A9.741 9.741 0 0 1 12 21.875a9.741 9.741 0 0 1-9.535-7.582.498.498 0 0 0-.32-.355A1.708 1.708 0 0 1 .98 12.323c0-.664.458-1.386 1.04-1.687.562.133 2.34.492 4.605.492 2.867 0 6.516-.578 9.473-2.941a.11.11 0 0 1 .09-.024.078.078 0 0 1 .058.035c1.617 2.41 3.66 3.27 5.77 2.457.566.309 1.004 1.02 1.004 1.668 0 .727-.47 1.38-1.165 1.614zm0 0"/>
    <path d="M16.164 16.488H8.332a.496.496 0 0 0-.488.5c0 1.403.781 2.727 1.945 3.297.832.406 1.66.613 2.457.613.793 0 1.621-.207 2.457-.613 1.172-.57 1.953-1.898 1.95-3.308a.488.488 0 0 0-.489-.489zm-5.945 2.914c-.028-.011-.055-.03-.078-.043.242-.195.91-.422 2.109-.422 1.191 0 1.86.227 2.105.418-.027.016-.05.036-.078.047-1.406.684-2.66.684-4.058 0zm4.875-.695c-.485-.48-1.457-.75-2.844-.75-1.39 0-2.363.27-2.848.754a2.917 2.917 0 0 1-.539-1.242h6.77a2.928 2.928 0 0 1-.54 1.238zm0 0M8.023 15.02c0-1.016.825-1.844 1.84-1.844a.49.49 0 0 0 .348-.836c-1.098-1.094-3.094-1.094-4.191 0a.493.493 0 0 0 .695.695c.457-.457 1.168-.625 1.816-.504a2.824 2.824 0 0 0-1.488 2.489c0 .27.219.488.488.488.27 0 .492-.219.492-.488zm0 0M14.348 12.34a.487.487 0 0 0-.106.535c.074.184.254.3.453.3 1.016 0 1.84.829 1.84 1.845a.49.49 0 1 0 .98 0 2.832 2.832 0 0 0-1.488-2.489c.645-.12 1.36.047 1.817.504.191.192.5.192.691 0a.493.493 0 0 0 0-.695c-1.094-1.094-3.09-1.094-4.187 0zm0 0"/>
</svg>
